image/footer-icons/scrolltop.svg

<svg width="23" height="38" viewBox="0 0 23 38" fill="none" xmlns="http://www.w3.org/2000/svg">
<rect y="0.937012" width="22.5" height="36.9253" rx="3" fill="white"/>
<path d="M10.9879 11.8758L8.71871 15.3864C8.69987 15.4206 8.6793 15.4524 8.65718 15.4818C8.42043 15.796 8.06366 15.7533 7.86106 15.3867C7.6591 15.0214 7.68653 14.4722 7.90893 14.1785L11.1517 9.15376C11.3723 8.814 11.7283 8.81397 11.9488 9.15372L15.1779 14.1589C15.1999 14.1881 15.2205 14.22 15.2394 14.2542C15.4414 14.6196 15.414 15.1687 15.178 15.4818C14.9413 15.796 14.5845 15.7533 14.3944 15.4076L12.1158 11.8768V30.8749C12.1158 31.3558 11.8637 31.7466 11.5519 31.7466C11.2401 31.7466 10.9879 31.3558 10.9879 30.8749V11.8758Z" fill="#26666B"/>
</svg>

<svg fill="none" height="38" width="23" xmlns="http://www.w3.org/2000/svg"><rect fill="#fff" height="36.925" rx="3" width="22.5" y=".937"/><path d="M10.988 11.876l-2.27 3.51a.803.803 0 01-.06.096c-.238.314-.594.271-.797-.095-.202-.366-.174-.915.048-1.209l3.243-5.024c.22-.34.576-.34.797 0l3.229 5.005c.022.03.043.061.061.095.202.366.175.915-.061 1.228-.237.314-.594.271-.784-.074l-2.278-3.531v18.998c0 .48-.252.872-.564.872s-.564-.391-.564-.872z" fill="#26666b"/></svg>
